icons/mobile/24/svg/private-mode-circle-fill-24.svg

<svg width="24" height="24" viewBox="0 0 24 24" fill="none" xmlns="http://www.w3.org/2000/svg">
<path d="M8.1123 12.7688C9.19819 12.5885 10.6365 13.0132 10.9873 14.137C9.99005 15.0467 7.93699 14.4199 7.44824 13.2102V13.2083C7.42603 12.9766 7.92964 12.7981 8.1123 12.7688Z" fill="black"/>
<path d="M12.9941 14.135C13.3458 13.0123 14.7847 12.5885 15.8701 12.7688C16.0528 12.7981 16.5564 12.9766 16.5342 13.2083C16.0429 14.4179 13.9914 15.0471 12.9941 14.135Z" fill="black"/>
<path fill-rule="evenodd" clip-rule="evenodd" d="M12 1.99927C17.5228 1.99927 22 6.47642 22 11.9993C22 17.5221 17.5228 21.9993 12 21.9993C6.47715 21.9993 2 17.5221 2 11.9993C2 6.47642 6.47715 1.99927 12 1.99927ZM16.0781 6.61548C15.3228 6.45939 14.6554 6.86725 13.7939 8.59399C13.0856 10.0181 12.6074 11.011 12.6074 11.011V11.0208L12.1211 11.0159H11.876C11.8739 11.0159 11.8652 11.016 11.8643 11.0178L11.3779 11.0227V11.0129C11.3709 10.9984 10.8936 10.0074 10.1904 8.59595C9.33149 6.86701 8.66252 6.46234 7.90723 6.61841C7.24322 6.75499 6.84078 7.94999 6.62109 8.46704C6.19407 9.47673 5.83332 10.4867 5.62598 11.5598C5.48278 12.2985 5.10306 12.8394 4.35059 12.842C4.15822 12.842 4.02945 13.042 4.0957 13.22C4.25613 13.6492 4.74992 13.9228 5.16211 14.0813C4.97683 14.13 4.42409 14.0182 4.39941 14.2961C4.37999 14.5229 4.95781 14.7523 5.11328 14.8254C6.567 15.5254 7.90473 16.7807 9.625 16.5588C10.3729 16.4613 10.9191 15.9345 11.5312 15.6077C11.8199 15.4543 12.1704 15.4542 12.459 15.6077C13.0711 15.9344 13.6165 16.4612 14.3643 16.5588C16.0847 16.7808 17.4231 15.5254 18.877 14.8254C19.0324 14.7498 19.6069 14.5229 19.5898 14.2961C19.5676 14.0205 19.0147 14.1301 18.8271 14.0813C19.2394 13.9228 19.7331 13.6492 19.8936 13.22C19.9599 13.042 19.8296 12.8445 19.6396 12.842L19.6348 12.8401C18.8844 12.8401 18.5016 12.2959 18.3584 11.5569C18.151 10.4863 17.7903 9.47375 17.3633 8.46411C17.1436 7.94444 16.7417 6.75237 16.0781 6.61548Z" fill="black"/>
</svg>

<!-- This Source Code Form is subject to the terms of the Mozilla Public
   - License, v. 2.0. If a copy of the MPL was not distributed with this
   - file, You can obtain one at http://mozilla.org/MPL/2.0/. -->
<svg xmlns="http://www.w3.org/2000/svg" width="24" height="24" fill="none" viewBox="0 0 24 24">
    <path fill="#000" d="M8.112 12.769c1.086-.18 2.524.244 2.875 1.368-.997.91-3.05.283-3.539-.927v-.002c-.022-.231.482-.41.664-.44m4.882 1.367c.352-1.123 1.79-1.546 2.876-1.366.183.03.686.208.664.44-.491 1.209-2.543 1.838-3.54.926" />
    <path fill="#000" fill-rule="evenodd" d="M12 2c5.523 0 10 4.476 10 10 0 5.522-4.477 10-10 10S2 17.521 2 12C2 6.475 6.477 2 12 2m4.078 4.615c-.755-.156-1.423.252-2.284 1.979-.708 1.424-1.187 2.417-1.187 2.417v.01l-.486-.005h-.245c-.002 0-.01 0-.012.002l-.486.005v-.01a202 202 0 0 0-1.188-2.417c-.859-1.729-1.527-2.134-2.283-1.978-.664.137-1.066 1.332-1.286 1.849-.427 1.01-.788 2.02-.995 3.093-.143.739-.523 1.28-1.275 1.282-.193 0-.322.2-.255.378.16.43.654.703 1.066.861-.185.049-.738-.063-.763.215-.019.227.559.456.714.53 1.454.7 2.792 1.955 4.512 1.733.748-.098 1.294-.625 1.906-.951a.99.99 0 0 1 .928 0c.612.326 1.158.853 1.905.95 1.72.223 3.06-1.033 4.513-1.733.155-.075.73-.302.713-.529-.022-.275-.575-.166-.763-.215.412-.158.906-.432 1.067-.861a.28.28 0 0 0-.254-.378l-.005-.002c-.75 0-1.133-.544-1.277-1.283-.207-1.07-.568-2.083-.995-3.093-.22-.52-.621-1.712-1.285-1.849" clip-rule="evenodd" />
</svg>
